icons/nodes_translate.svg

<?xml version="1.0" encoding="UTF-8" standalone="no"?>
<svg
   version="1.1"
   id="svg2963"
   height="32"
   width="32"
   sodipodi:docname="nodes_translate.svg"
   inkscape:version="1.1.2 (b8e25be833, 2022-02-05)"
   xmlns:inkscape="http://www.inkscape.org/namespaces/inkscape"
   xmlns:sodipodi="http://sodipodi.sourceforge.net/DTD/sodipodi-0.dtd"
   xmlns:xlink="http://www.w3.org/1999/xlink"
   xmlns="http://www.w3.org/2000/svg"
   xmlns:svg="http://www.w3.org/2000/svg"
   xmlns:rdf="http://www.w3.org/1999/02/22-rdf-syntax-ns#"
   xmlns:cc="http://creativecommons.org/ns#"
   xmlns:dc="http://purl.org/dc/elements/1.1/">
  <sodipodi:namedview
     id="namedview4080"
     pagecolor="#ffffff"
     bordercolor="#666666"
     borderopacity="1.0"
     inkscape:pageshadow="2"
     inkscape:pageopacity="0.0"
     inkscape:pagecheckerboard="0"
     showgrid="false"
     inkscape:zoom="12.625"
     inkscape:cx="31.960396"
     inkscape:cy="25.70297"
     inkscape:window-width="1920"
     inkscape:window-height="1001"
     inkscape:window-x="-9"
     inkscape:window-y="-9"
     inkscape:window-maximized="1"
     inkscape:current-layer="svg2963" />
  <defs
     id="defs2965">
    <linearGradient
       id="linearGradient3354">
      <stop
         id="stop3356"
         offset="0"
         style="stop-color:#2157c7;stop-opacity:1;" />
      <stop
         id="stop3358"
         offset="1"
         style="stop-color:#6daaff;stop-opacity:1;" />
    </linearGradient>
    <linearGradient
       xlink:href="#linearGradient3895"
       id="linearGradient3036"
       gradientUnits="userSpaceOnUse"
       x1="56.172409"
       y1="29.279999"
       x2="21.689653"
       y2="36.079998"
       gradientTransform="matrix(0,-1.4500001,1.4705882,0,-15.05882,91.45)" />
    <linearGradient
       id="linearGradient3895">
      <stop
         id="stop3897"
         offset="0"
         style="stop-color:#729fcf;stop-opacity:1;" />
      <stop
         id="stop3899"
         offset="1"
         style="stop-color:#204a87;stop-opacity:1;" />
    </linearGradient>
    <linearGradient
       xlink:href="#linearGradient3895-6"
       id="linearGradient3918-3"
       gradientUnits="userSpaceOnUse"
       gradientTransform="matrix(0,-0.58000003,0.58823527,0,13.176471,38.379999)"
       x1="56.172409"
       y1="29.279999"
       x2="21.689653"
       y2="36.079998" />
    <linearGradient
       id="linearGradient3895-6">
      <stop
         id="stop3897-7"
         offset="0"
         style="stop-color:#729fcf;stop-opacity:1;" />
      <stop
         id="stop3899-5"
         offset="1"
         style="stop-color:#204a87;stop-opacity:1;" />
    </linearGradient>
    <linearGradient
       xlink:href="#linearGradient3895-6-2"
       id="linearGradient3029-6"
       gradientUnits="userSpaceOnUse"
       gradientTransform="matrix(0.58000003,0,0,0.58823527,25.620001,13.176471)"
       x1="56.172409"
       y1="29.279999"
       x2="21.689653"
       y2="36.079998" />
    <linearGradient
       id="linearGradient3895-6-2">
      <stop
         id="stop3897-7-9"
         offset="0"
         style="stop-color:#729fcf;stop-opacity:1;" />
      <stop
         id="stop3899-5-1"
         offset="1"
         style="stop-color:#204a87;stop-opacity:1;" />
    </linearGradient>
    <linearGradient
       xlink:href="#linearGradient3895-9"
       id="linearGradient3918-0"
       gradientUnits="userSpaceOnUse"
       gradientTransform="matrix(0,-0.58000003,0.58823527,0,13.176471,38.379999)"
       x1="56.172409"
       y1="29.279999"
       x2="21.689653"
       y2="36.079998" />
    <linearGradient
       id="linearGradient3895-9">
      <stop
         id="stop3897-3"
         offset="0"
         style="stop-color:#729fcf;stop-opacity:1;" />
      <stop
         id="stop3899-6"
         offset="1"
         style="stop-color:#204a87;stop-opacity:1;" />
    </linearGradient>
    <linearGradient
       y2="52.400002"
       x2="-23.482759"
       y1="11.599999"
       x1="45.482754"
       gradientTransform="matrix(0,-0.58000003,0.58823527,0,13.176471,38.379999)"
       gradientUnits="userSpaceOnUse"
       id="linearGradient3154"
       xlink:href="#linearGradient3895" />
    <linearGradient
       y2="66"
       x2="-9.6896563"
       y1="-2.0000007"
       x1="31.689651"
       gradientTransform="matrix(-0.58000003,0,0,0.58823527,38.379999,13.176471)"
       gradientUnits="userSpaceOnUse"
       id="linearGradient3156"
       xlink:href="#linearGradient3895-6-2" />
    <linearGradient
       y2="66"
       x2="31.689651"
       y1="-2.0000007"
       x1="-9.6896563"
       gradientTransform="matrix(0.58000003,0,0,0.58823527,25.620001,13.176471)"
       gradientUnits="userSpaceOnUse"
       id="linearGradient3158"
       xlink:href="#linearGradient3895-6" />
    <linearGradient
       y2="52.400002"
       x2="45.482754"
       y1="11.599999"
       x1="-23.482759"
       gradientTransform="matrix(0,0.58000003,0.58823527,0,13.176471,25.620001)"
       gradientUnits="userSpaceOnUse"
       id="linearGradient3160"
       xlink:href="#linearGradient3895-9" />
    <linearGradient
       gradientUnits="userSpaceOnUse"
       y2="52"
       x2="44"
       y1="12"
       x1="20"
       id="linearGradient3936"
       xlink:href="#linearGradient3895-9" />
    <linearGradient
       gradientUnits="userSpaceOnUse"
       y2="52"
       x2="44"
       y1="12"
       x1="20"
       id="linearGradient3944"
       xlink:href="#linearGradient3895-9" />
  </defs>
  <g
     id="layer1"
     transform="matrix(0.53333396,0,0,0.53333396,-1.0666867,-1.0666867)">
    <rect
       y="29"
       x="26"
       height="6"
       width="12"
       id="rect3126"
       style="fill:url(#linearGradient3936);fill-opacity:1;stroke:none" />
    <rect
       y="26"
       x="29"
       height="11.999999"
       width="6"
       id="rect3126-2"
       style="fill:url(#linearGradient3944);fill-opacity:1;stroke:none" />
    <g
       transform="matrix(0.1378133,0,0,0.1378133,-221.39699,-138.35275)"
       id="g4351" />
    <path
       id="path3343"
       d="M 37,28 V 13 h 6 L 32,3 21,13 h 6 v 15"
       style="fill:url(#linearGradient3154);fill-opacity:1;fill-rule:evenodd;stroke:#0b1521;stroke-width:2;stroke-linecap:butt;stroke-linejoin:round;stroke-miterlimit:4;stroke-dasharray:none;stroke-opacity:1" />
    <path
       id="path3343-2"
       d="M 35,29 V 11 h 2.831259 L 32,5.7026937 26.168741,11 H 29 v 18"
       style="fill:none;stroke:#729fcf;stroke-width:2;stroke-linecap:butt;stroke-linejoin:miter;stroke-miterlimit:4;stroke-dasharray:none;stroke-opacity:1" />
    <path
       id="path3343-3"
       d="m 37,37 h 14 v 6 L 61,32 51,21 v 6 H 37"
       style="fill:url(#linearGradient3158);fill-opacity:1;fill-rule:evenodd;stroke:#0b1521;stroke-width:2;stroke-linecap:butt;stroke-linejoin:round;stroke-miterlimit:4;stroke-dasharray:none;stroke-opacity:1" />
    <path
       id="path3343-2-5"
       d="m 35,35 h 18 v 2.831259 L 58.297306,32 53,26.168741 V 29 H 34"
       style="fill:none;stroke:#729fcf;stroke-width:2;stroke-linecap:butt;stroke-linejoin:miter;stroke-miterlimit:4;stroke-dasharray:none;stroke-opacity:1" />
    <path
       id="path3343-3-2"
       d="M 27,37 H 13 v 6 L 3,32 13,21 v 6 h 14"
       style="fill:url(#linearGradient3156);fill-opacity:1;fill-rule:evenodd;stroke:#0b1521;stroke-width:2;stroke-linecap:butt;stroke-linejoin:round;stroke-miterlimit:4;stroke-dasharray:none;stroke-opacity:1" />
    <path
       id="path3343-2-5-7"
       d="M 29,35 H 11 v 2.831259 L 5.702694,32 11,26.168741 V 29 h 19"
       style="fill:none;stroke:#729fcf;stroke-width:2;stroke-linecap:butt;stroke-linejoin:miter;stroke-miterlimit:4;stroke-dasharray:none;stroke-opacity:1" />
    <path
       id="path3343-0"
       d="m 37,36 v 15 h 6 L 32,61 21,51 h 6 V 36"
       style="fill:url(#linearGradient3160);fill-opacity:1;fill-rule:evenodd;stroke:#0b1521;stroke-width:2;stroke-linecap:butt;stroke-linejoin:round;stroke-miterlimit:4;stroke-dasharray:none;stroke-opacity:1" />
    <path
       id="path3343-2-6"
       d="m 35,34 v 19 h 2.831259 L 32,58.297306 26.168741,53 H 29 V 34"
       style="fill:none;stroke:#729fcf;stroke-width:2;stroke-linecap:butt;stroke-linejoin:miter;stroke-miterlimit:4;stroke-dasharray:none;stroke-opacity:1" />
  </g>
  <metadata
     id="metadata5006">
    <rdf:RDF>
      <cc:Work
         rdf:about="">
        <dc:format>image/svg+xml</dc:format>
        <dc:type
           rdf:resource="http://purl.org/dc/dcmitype/StillImage" />
        <cc:license
           rdf:resource="" />
        <dc:date>Mon Oct 10 13:44:52 2011 +0000</dc:date>
        <dc:creator>
          <cc:Agent>
            <dc:title>[wmayer]</dc:title>
          </cc:Agent>
        </dc:creator>
        <dc:rights>
          <cc:Agent>
            <dc:title>FreeCAD LGPL2+</dc:title>
          </cc:Agent>
        </dc:rights>
        <dc:publisher>
          <cc:Agent>
            <dc:title>FreeCAD</dc:title>
          </cc:Agent>
        </dc:publisher>
        <dc:identifier>FreeCAD/src/Mod/Draft/Resources/icons/Draft_Move.svg</dc:identifier>
        <dc:relation>http://www.freecadweb.org/wiki/index.php?title=Artwork</dc:relation>
        <dc:contributor>
          <cc:Agent>
            <dc:title>[agryson] Alexander Gryson</dc:title>
          </cc:Agent>
        </dc:contributor>
        <dc:subject>
          <rdf:Bag>
            <rdf:li>arrow</rdf:li>
            <rdf:li>move</rdf:li>
            <rdf:li>arrows</rdf:li>
            <rdf:li>compass</rdf:li>
            <rdf:li>cross</rdf:li>
          </rdf:Bag>
        </dc:subject>
        <dc:description>Four equally sized arrow heads at 90° to each other, all joined at the tail</dc:description>
      </cc:Work>
    </rdf:RDF>
  </metadata>
</svg>

<?xml version="1.0" encoding="UTF-8" standalone="no"?>
<svg
   xmlns:dc="http://purl.org/dc/elements/1.1/"
   xmlns:cc="http://creativecommons.org/ns#"
   xmlns:rdf="http://www.w3.org/1999/02/22-rdf-syntax-ns#"
   xmlns:svg="http://www.w3.org/2000/svg"
   xmlns="http://www.w3.org/2000/svg"
   xmlns:xlink="http://www.w3.org/1999/xlink"
   version="1.1"
   id="svg2963"
   height="64px"
   width="64px">
  <defs
     id="defs2965">
    <linearGradient
       id="linearGradient3354">
      <stop
         id="stop3356"
         offset="0"
         style="stop-color:#2157c7;stop-opacity:1;" />
      <stop
         id="stop3358"
         offset="1"
         style="stop-color:#6daaff;stop-opacity:1;" />
    </linearGradient>
    <linearGradient
       xlink:href="#linearGradient3895"
       id="linearGradient3036"
       gradientUnits="userSpaceOnUse"
       x1="56.172409"
       y1="29.279999"
       x2="21.689653"
       y2="36.079998"
       gradientTransform="matrix(0,-1.4500001,1.4705882,0,-15.05882,91.45)" />
    <linearGradient
       id="linearGradient3895">
      <stop
         id="stop3897"
         offset="0"
         style="stop-color:#729fcf;stop-opacity:1;" />
      <stop
         id="stop3899"
         offset="1"
         style="stop-color:#204a87;stop-opacity:1;" />
    </linearGradient>
    <linearGradient
       xlink:href="#linearGradient3895-6"
       id="linearGradient3918-3"
       gradientUnits="userSpaceOnUse"
       gradientTransform="matrix(0,-0.58000003,0.58823527,0,13.176471,38.379999)"
       x1="56.172409"
       y1="29.279999"
       x2="21.689653"
       y2="36.079998" />
    <linearGradient
       id="linearGradient3895-6">
      <stop
         id="stop3897-7"
         offset="0"
         style="stop-color:#729fcf;stop-opacity:1;" />
      <stop
         id="stop3899-5"
         offset="1"
         style="stop-color:#204a87;stop-opacity:1;" />
    </linearGradient>
    <linearGradient
       xlink:href="#linearGradient3895-6-2"
       id="linearGradient3029-6"
       gradientUnits="userSpaceOnUse"
       gradientTransform="matrix(0.58000003,0,0,0.58823527,25.620001,13.176471)"
       x1="56.172409"
       y1="29.279999"
       x2="21.689653"
       y2="36.079998" />
    <linearGradient
       id="linearGradient3895-6-2">
      <stop
         id="stop3897-7-9"
         offset="0"
         style="stop-color:#729fcf;stop-opacity:1;" />
      <stop
         id="stop3899-5-1"
         offset="1"
         style="stop-color:#204a87;stop-opacity:1;" />
    </linearGradient>
    <linearGradient
       xlink:href="#linearGradient3895-9"
       id="linearGradient3918-0"
       gradientUnits="userSpaceOnUse"
       gradientTransform="matrix(0,-0.58000003,0.58823527,0,13.176471,38.379999)"
       x1="56.172409"
       y1="29.279999"
       x2="21.689653"
       y2="36.079998" />
    <linearGradient
       id="linearGradient3895-9">
      <stop
         id="stop3897-3"
         offset="0"
         style="stop-color:#729fcf;stop-opacity:1;" />
      <stop
         id="stop3899-6"
         offset="1"
         style="stop-color:#204a87;stop-opacity:1;" />
    </linearGradient>
    <linearGradient
       y2="52.400002"
       x2="-23.482759"
       y1="11.599999"
       x1="45.482754"
       gradientTransform="matrix(0,-0.58000003,0.58823527,0,13.176471,38.379999)"
       gradientUnits="userSpaceOnUse"
       id="linearGradient3154"
       xlink:href="#linearGradient3895" />
    <linearGradient
       y2="66"
       x2="-9.6896563"
       y1="-2.0000007"
       x1="31.689651"
       gradientTransform="matrix(-0.58000003,0,0,0.58823527,38.379999,13.176471)"
       gradientUnits="userSpaceOnUse"
       id="linearGradient3156"
       xlink:href="#linearGradient3895-6-2" />
    <linearGradient
       y2="66"
       x2="31.689651"
       y1="-2.0000007"
       x1="-9.6896563"
       gradientTransform="matrix(0.58000003,0,0,0.58823527,25.620001,13.176471)"
       gradientUnits="userSpaceOnUse"
       id="linearGradient3158"
       xlink:href="#linearGradient3895-6" />
    <linearGradient
       y2="52.400002"
       x2="45.482754"
       y1="11.599999"
       x1="-23.482759"
       gradientTransform="matrix(0,0.58000003,0.58823527,0,13.176471,25.620001)"
       gradientUnits="userSpaceOnUse"
       id="linearGradient3160"
       xlink:href="#linearGradient3895-9" />
    <linearGradient
       gradientUnits="userSpaceOnUse"
       y2="52"
       x2="44"
       y1="12"
       x1="20"
       id="linearGradient3936"
       xlink:href="#linearGradient3895-9" />
    <linearGradient
       gradientUnits="userSpaceOnUse"
       y2="52"
       x2="44"
       y1="12"
       x1="20"
       id="linearGradient3944"
       xlink:href="#linearGradient3895-9" />
  </defs>
  <g
     id="layer1">
    <rect
       y="29"
       x="26"
       height="6"
       width="12"
       id="rect3126"
       style="fill:url(#linearGradient3936);fill-opacity:1;stroke:none" />
    <rect
       y="26"
       x="29"
       height="11.999999"
       width="6"
       id="rect3126-2"
       style="fill:url(#linearGradient3944);fill-opacity:1;stroke:none" />
    <g
       transform="matrix(0.1378133,0,0,0.1378133,-221.39699,-138.35275)"
       id="g4351" />
    <path
       id="path3343"
       d="m 37,28 0,-15 6,0 -11,-10 -11,10 6,0 0,15"
       style="fill:url(#linearGradient3154);fill-opacity:1;fill-rule:evenodd;stroke:#0b1521;stroke-width:2;stroke-linecap:butt;stroke-linejoin:round;stroke-miterlimit:4;stroke-opacity:1;stroke-dasharray:none" />
    <path
       id="path3343-2"
       d="M 35,29 35,11 37.831259,11 32,5.7026937 26.168741,11 29,11 29,29"
       style="fill:none;stroke:#729fcf;stroke-width:2;stroke-linecap:butt;stroke-linejoin:miter;stroke-miterlimit:4;stroke-opacity:1;stroke-dasharray:none" />
    <path
       id="path3343-3"
       d="m 37,37 14,0 0,6 10,-11 -10,-11 0,6 -14,0"
       style="fill:url(#linearGradient3158);fill-opacity:1;fill-rule:evenodd;stroke:#0b1521;stroke-width:2;stroke-linecap:butt;stroke-linejoin:round;stroke-miterlimit:4;stroke-opacity:1;stroke-dasharray:none" />
    <path
       id="path3343-2-5"
       d="m 35,35 18,0 0,2.831259 L 58.297306,32 53,26.168741 53,29 34,29"
       style="fill:none;stroke:#729fcf;stroke-width:2;stroke-linecap:butt;stroke-linejoin:miter;stroke-miterlimit:4;stroke-opacity:1;stroke-dasharray:none" />
    <path
       id="path3343-3-2"
       d="m 27,37 -14,0 0,6 -10,-11 10,-11 0,6 14,0"
       style="fill:url(#linearGradient3156);fill-opacity:1;fill-rule:evenodd;stroke:#0b1521;stroke-width:2;stroke-linecap:butt;stroke-linejoin:round;stroke-miterlimit:4;stroke-opacity:1;stroke-dasharray:none" />
    <path
       id="path3343-2-5-7"
       d="M 29,35 11,35 11,37.831259 5.702694,32 11,26.168741 11,29 30,29"
       style="fill:none;stroke:#729fcf;stroke-width:2;stroke-linecap:butt;stroke-linejoin:miter;stroke-miterlimit:4;stroke-opacity:1;stroke-dasharray:none" />
    <path
       id="path3343-0"
       d="m 37,36 0,15 6,0 -11,10 -11,-10 6,0 0,-15"
       style="fill:url(#linearGradient3160);fill-opacity:1;fill-rule:evenodd;stroke:#0b1521;stroke-width:2;stroke-linecap:butt;stroke-linejoin:round;stroke-miterlimit:4;stroke-opacity:1;stroke-dasharray:none" />
    <path
       id="path3343-2-6"
       d="m 35,34 0,19 2.831259,0 L 32,58.297306 26.168741,53 29,53 29,34"
       style="fill:none;stroke:#729fcf;stroke-width:2;stroke-linecap:butt;stroke-linejoin:miter;stroke-miterlimit:4;stroke-opacity:1;stroke-dasharray:none" />
  </g>
  <metadata
     id="metadata5006">
    <rdf:RDF>
      <cc:Work
         rdf:about="">
        <dc:format>image/svg+xml</dc:format>
        <dc:type
           rdf:resource="http://purl.org/dc/dcmitype/StillImage" />
        <dc:title></dc:title>
        <cc:license
           rdf:resource="" />
        <dc:date>Mon Oct 10 13:44:52 2011 +0000</dc:date>
        <dc:creator>
          <cc:Agent>
            <dc:title>[wmayer]</dc:title>
          </cc:Agent>
        </dc:creator>
        <dc:rights>
          <cc:Agent>
            <dc:title>FreeCAD LGPL2+</dc:title>
          </cc:Agent>
        </dc:rights>
        <dc:publisher>
          <cc:Agent>
            <dc:title>FreeCAD</dc:title>
          </cc:Agent>
        </dc:publisher>
        <dc:identifier>FreeCAD/src/Mod/Draft/Resources/icons/Draft_Move.svg</dc:identifier>
        <dc:relation>http://www.freecadweb.org/wiki/index.php?title=Artwork</dc:relation>
        <dc:contributor>
          <cc:Agent>
            <dc:title>[agryson] Alexander Gryson</dc:title>
          </cc:Agent>
        </dc:contributor>
        <dc:subject>
          <rdf:Bag>
            <rdf:li>arrow</rdf:li>
            <rdf:li>move</rdf:li>
            <rdf:li>arrows</rdf:li>
            <rdf:li>compass</rdf:li>
            <rdf:li>cross</rdf:li>
          </rdf:Bag>
        </dc:subject>
        <dc:description>Four equally sized arrow heads at 90° to each other, all joined at the tail</dc:description>
      </cc:Work>
    </rdf:RDF>
  </metadata>
</svg>
